X:1
T:Title
%%score { ( 1 4 5 ) | ( 2 3 6 ) }
L:1/8
M:4/4
K:Db
V:1 treble nm="Grand Piano"
V:4 treble 
V:5 treble 
V:2 bass 
V:3 bass 
V:6 bass 
V:1
 z4 z2[Q:1/4=100] [DF]>[EG] | [FA]3 [FA] [GB]3 [FA] | [FA] [Fd]3- [Fd]2 [Fd]>[Fd] | %3
 [Ec]4- [Ec]B [A,FA]>[A,EG] | [A,DF]6 [A,DF]>[A,EG] | [FA]3 [FA] [GB]3 [FA] | %6
 [FA] [Fd]3- [Fd]2 [Fd]>[Fd] | [Ec]3 [CEA] [EGB]2 [EGc]2 |[M:3/4] [DFd]6 |[M:1/4] d>c | %10
[M:4/4] B6 z2 | [FA]4 z4 | [A,CE]3 [CGB] [CFA]2 [CEG]2 | [DF] [DFA]3- [DFA]2 d>c | B6 z2 | %15
 [FA]4 z4 | [Ec]3 [CEA] [EGB]2 [EGc]2 |[M:3/4] [DFd]6 |] %18
V:2
 z4 z2 [D,A,]>[D,A,] | [D,D]3 [D,D] [D,D]3 [D,D] | [D,D] [D,A,]3- [D,A,]2 [D,A,]>[F,A,] | %3
 z4 A,2 z2 | D,6 D,>D, | [D,D]3 [D,D] [D,D]3 [D,D] | [D,D] [D,A,]3- [D,A,]2 [D,A,]>[F,A,] | %7
 A,3 A, A,,2 A,,2 |[M:3/4] D,6 |[M:1/4][K:treble] F>A |[M:4/4] G6[K:bass][K:treble][K:bass] z2 | %11
 D,2 D,>D, D,2 C,>D, | A,,3 A,, A,,2 A,,2 | D, D,3- D,2[K:treble] F>A | %14
 G6[K:bass][K:treble][K:bass] z2 | D,2 D,>D, [D,A,]2 [D,A,]>[D,A,] | A,3 A, A,,2 A,,2 | %17
[M:3/4] D,6 |] %18
V:3
 x8 | x8 | x8 | A,2 A,>A, z G A,,>G,, | x8 | x8 | x8 | x8 |[M:3/4] x6 |[M:1/4][K:treble] x2 | %10
[M:4/4] z2[K:bass] G,>G, z[K:treble] B[K:bass] G,>G, | x8 | x8 | x6[K:treble] x2 | %14
 z2[K:bass] G,>G, z[K:treble] B[K:bass] G,>G, | x8 | x8 |[M:3/4] x6 |] %18
V:4
 x8 | x8 | x8 | x8 | x8 | x8 | x8 | x8 |[M:3/4] x6 |[M:1/4] x2 |[M:4/4] z2 D>D z d [DAc]>[DGB] | %11
 D2 D>D [A,DF]2 [A,EG]>[A,DF] | x8 | x8 | z2 D>D z d [DAc]>[DGB] | D2 D>D [DF]2 [FA]>[Fd] | x8 | %17
[M:3/4] x6 |] %18
V:5
 x8 | x8 | x8 | x8 | x8 | x8 | x8 | x8 |[M:3/4] x6 |[M:1/4] x2 |[M:4/4] z4 D2 z2 | x8 | x8 | x8 | %14
 z4 D2 z2 | x8 | x8 |[M:3/4] x6 |] %18
V:6
 x8 | x8 | x8 | x8 | x8 | x8 | x8 | x8 |[M:3/4] x6 |[M:1/4][K:treble] x2 | %10
[M:4/4] z4[K:bass] G,2[K:treble][K:bass] z2 | x8 | x8 | x6[K:treble] x2 | %14
 z4[K:bass] G,2[K:treble][K:bass] z2 | x8 | x8 |[M:3/4] x6 |] %18

